svg/logos/logo-cigna.svg

<?xml version="1.0" encoding="UTF-8"?>
<svg width="157px" height="52px" viewBox="0 0 157 52" version="1.1" xmlns="http://www.w3.org/2000/svg" xmlns:xlink="http://www.w3.org/1999/xlink">
    <!-- Generator: Sketch 52.5 (67469) - http://www.bohemiancoding.com/sketch -->
    <title>logo-cigna</title>
    <desc>Created with Sketch.</desc>
    <defs>
        <polygon id="path-1" points="0.1962 0.4206 22.4042 0.4206 22.4042 30 0.1962 30"></polygon>
        <polygon id="path-3" points="1.4004 0.1348 6.282 0.1348 6.282 5.0208 1.4004 5.0208"></polygon>
    </defs>
    <g id="V2" stroke="none" stroke-width="1" fill="none" fill-rule="evenodd">
        <g id="home" transform="translate(-620.000000, -884.000000)">
            <g id="logos" transform="translate(0.000000, 720.000000)">
                <g transform="translate(405.000000, 154.000000)" id="logo-cigna">
                    <g transform="translate(215.000000, 10.000000)">
                        <g id="Group-3" transform="translate(16.000000, 21.158200)">
                            <mask id="mask-2" fill="white">
                                <use xlink:href="#path-1"></use>
                            </mask>
                            <g id="Clip-2"></g>
                            <path d="M22.4042,0.7266 C22.4042,1.1206 21.9922,1.5586 21.4462,2.2326 C19.6002,4.5066 15.4782,8.5446 15.4782,18.5566 C15.4782,23.7426 16.3322,25.8946 16.3322,28.3226 C16.3322,29.4266 16.1122,30.0006 15.5402,30.0006 C14.2362,30.0006 12.0282,24.5306 12.0282,17.9726 C12.0282,4.2426 20.6882,0.4206 22.0242,0.4206 C22.2902,0.4206 22.4042,0.5666 22.4042,0.7266 M0.5742,0.4206 C1.9122,0.4206 10.5702,4.2426 10.5702,17.9726 C10.5702,24.5306 8.3642,30.0006 7.0602,30.0006 C6.4882,30.0006 6.2662,29.4266 6.2662,28.3226 C6.2662,25.8946 7.1202,23.7426 7.1202,18.5566 C7.1202,8.5446 3.0002,4.5066 1.1542,2.2326 C0.6082,1.5586 0.1962,1.1206 0.1962,0.7266 C0.1962,0.5666 0.3102,0.4206 0.5742,0.4206" id="Fill-1" fill="#0081C5" mask="url(#mask-2)"></path>
                        </g>
                        <path d="M24.1358,24.3262 C24.1358,26.1182 25.5518,27.5702 27.2998,27.5702 C29.0458,27.5702 30.4638,26.1182 30.4638,24.3262 C30.4638,22.5322 29.0458,21.0802 27.2998,21.0802 C25.5518,21.0802 24.1358,22.5322 24.1358,24.3262" id="Fill-4" fill="#F7971D"></path>
                        <path d="M27.3008,9.3028 C26.0128,8.7048 24.7488,7.5948 24.7488,5.2828 C24.7488,3.0768 25.7908,0.9528 27.3008,0.0008 C28.8108,0.9528 29.8528,3.0768 29.8528,5.2828 C29.8528,7.5948 28.5868,8.7048 27.3008,9.3028 M54.3368,44.7128 C49.8388,41.9468 42.9948,39.0728 33.0708,38.1608 C33.0528,38.2808 32.9668,39.0148 32.9668,39.7148 C32.9668,40.0468 33.0268,40.4788 33.0368,40.5648 C42.7168,41.1928 49.6148,43.2508 54.2888,44.9248 L54.5188,44.9988 L54.5968,44.9268 C54.5968,44.8508 54.5188,44.8248 54.3368,44.7128 M32.4368,7.7048 C31.6768,7.0188 31.0408,5.9868 31.5328,4.3928 C32.0028,2.8748 33.1708,1.6328 34.4148,1.2968 C35.2528,2.2748 35.5168,3.9568 35.0488,5.4788 C34.5548,7.0728 33.4488,7.5688 32.4368,7.7048 M39.7408,13.7828 C39.4788,12.8388 39.4988,11.6728 40.7208,10.6368 C41.8868,9.6488 43.4728,9.2488 44.6528,9.6208 C44.8268,10.8448 44.1708,12.3428 43.0048,13.3328 C41.7828,14.3668 40.6308,14.1968 39.7408,13.7828 M39.9728,22.9548 C40.2808,22.0448 40.9388,21.1108 42.4988,20.9388 C43.9868,20.7788 45.4948,21.3288 46.2468,22.2768 C45.7168,23.3648 44.3588,24.2208 42.8708,24.3828 C41.3088,24.5508 40.4668,23.7808 39.9728,22.9548 M37.3288,26.2748 C37.8308,25.5828 38.6348,24.9608 40.0048,25.2268 C41.3128,25.4788 42.4508,26.3428 42.8428,27.3468 C42.1048,28.1328 40.7268,28.5048 39.4168,28.2528 C38.0468,27.9848 37.5328,27.1088 37.3288,26.2748 M29.3788,17.6008 C28.4648,16.7808 27.7028,15.5408 28.2948,13.6288 C28.8588,11.8068 30.2588,10.3168 31.7528,9.9148 C32.7568,11.0888 33.0748,13.1068 32.5108,14.9328 C31.9208,16.8448 30.5928,17.4368 29.3788,17.6008 M32.8508,19.6228 C32.5568,18.5588 32.5788,17.2488 33.9548,16.0828 C35.2648,14.9728 37.0488,14.5228 38.3748,14.9408 C38.5708,16.3188 37.8328,18.0048 36.5228,19.1148 C35.1468,20.2788 33.8508,20.0868 32.8508,19.6228 M35.1668,12.2088 C34.5008,11.1508 34.0988,9.7188 35.2108,8.0088 C36.2688,6.3728 38.0608,5.3048 39.6348,5.3248 C40.2948,6.7568 40.0468,8.8268 38.9848,10.4588 C37.8748,12.1728 36.4048,12.3848 35.1668,12.2088 M39.8508,18.6488 C39.8648,17.4828 40.2648,16.1588 41.9988,15.3768 C43.6508,14.6288 45.5928,14.6908 46.8168,15.4988 C46.6148,16.9508 45.3788,18.4488 43.7248,19.1968 C41.9948,19.9788 40.7328,19.4108 39.8508,18.6488 M0.0008,44.9268 L0.0808,44.9988 L0.3108,44.9248 C4.9828,43.2508 11.8828,41.1928 21.5628,40.5648 C21.5728,40.4788 21.6328,40.0468 21.6328,39.7148 C21.6328,39.0148 21.5468,38.2808 21.5288,38.1608 C11.6048,39.0728 4.7608,41.9468 0.2608,44.7128 C0.0808,44.8248 0.0008,44.8508 0.0008,44.9268 M19.5508,5.4788 C19.0808,3.9568 19.3468,2.2748 20.1848,1.2968 C21.4268,1.6328 22.5948,2.8748 23.0648,4.3928 C23.5568,5.9868 22.9228,7.0188 22.1648,7.7048 C21.1508,7.5688 20.0428,7.0728 19.5508,5.4788 M11.5928,13.3328 C10.4268,12.3428 9.7728,10.8448 9.9448,9.6208 C11.1268,9.2488 12.7128,9.6488 13.8788,10.6368 C15.0988,11.6728 15.1208,12.8388 14.8588,13.7828 C13.9668,14.1968 12.8148,14.3668 11.5928,13.3328 M11.7288,24.3828 C10.2408,24.2208 8.8848,23.3648 8.3508,22.2768 C9.1028,21.3288 10.6128,20.7788 12.1008,20.9388 C13.6608,21.1108 14.3208,22.0448 14.6268,22.9548 C14.1308,23.7808 13.2888,24.5508 11.7288,24.3828 M15.1808,28.2528 C13.8728,28.5048 12.4948,28.1328 11.7548,27.3468 C12.1468,26.3428 13.2848,25.4788 14.5928,25.2268 C15.9648,24.9608 16.7688,25.5828 17.2708,26.2748 C17.0668,27.1088 16.5508,27.9848 15.1808,28.2528 M22.0888,14.9328 C21.5228,13.1068 21.8428,11.0888 22.8468,9.9148 C24.3388,10.3168 25.7408,11.8068 26.3048,13.6288 C26.8948,15.5408 26.1348,16.7808 25.2228,17.6008 C24.0088,17.4368 22.6788,16.8448 22.0888,14.9328 M18.0788,19.1148 C16.7668,18.0048 16.0308,16.3188 16.2248,14.9408 C17.5508,14.5228 19.3348,14.9728 20.6468,16.0828 C22.0208,17.2488 22.0428,18.5588 21.7508,19.6228 C20.7488,20.0868 19.4508,20.2788 18.0788,19.1148 M15.6148,10.4588 C14.5528,8.8268 14.3028,6.7568 14.9648,5.3248 C16.5368,5.3048 18.3288,6.3728 19.3908,8.0088 C20.5008,9.7188 20.0988,11.1508 19.4348,12.2088 C18.1948,12.3848 16.7228,12.1728 15.6148,10.4588 M10.8748,19.1968 C9.2208,18.4488 7.9848,16.9508 7.7828,15.4988 C9.0088,14.6908 10.9488,14.6288 12.6008,15.3768 C14.3328,16.1588 14.7348,17.4828 14.7468,18.6488 C13.8648,19.4108 12.6068,19.9788 10.8748,19.1968" id="Fill-6" fill="#54B847"></path>
                        <path d="M110.5126,38.168 L110.5126,25.468 C110.5126,23.768 110.3546,20.502 110.3126,19.762 L114.2546,19.762 L114.4426,22.342 L114.5226,22.342 C114.9806,21.62 116.4626,19.348 119.9026,19.348 C124.0586,19.348 126.3686,22.398 126.3686,26.206 L126.3686,38.168 L121.9806,38.168 L121.9806,27.076 C121.9806,24.738 120.6786,22.97 118.4426,22.97 C116.1326,22.97 114.9046,24.834 114.9046,27.076 L114.9046,38.168 L110.5126,38.168 Z M80.4626,38.168 L84.8546,38.168 L84.8546,19.816 L80.4626,19.816 L80.4626,38.168 Z M147.4646,38.168 C147.3246,37.14 146.9126,34.436 146.9126,32.108 L146.9126,20.18 C146.2266,20.004 143.7326,19.348 140.8706,19.348 C133.4266,19.348 130.2266,24.334 130.2266,29.73 C130.2266,34.694 132.7186,38.582 137.5046,38.582 C140.9986,38.582 142.5626,36.32 143.1566,35.118 L143.2686,35.118 C143.3146,35.686 143.4726,37.632 143.5226,38.168 L147.4646,38.168 Z M142.5206,29.06 C142.5206,33.274 140.8706,35.03 138.4906,35.03 C136.0866,35.03 134.7346,32.992 134.7346,29.416 C134.7346,25.768 136.8306,22.748 140.6966,22.748 C141.4846,22.748 142.0446,22.826 142.5206,22.938 L142.5206,29.06 Z M76.0726,33.682 C74.8786,34.238 72.9686,34.61 71.1146,34.61 C66.0686,34.61 62.3546,31 62.3546,25.5 C62.3546,20.038 66.0446,16.386 71.1146,16.386 C73.6306,16.386 75.4186,16.998 76.0726,17.31 L76.0726,13.378 C74.9706,12.968 73.1786,12.556 70.6526,12.556 C62.8186,12.556 57.5586,17.968 57.5586,25.5 C57.5586,32.618 62.4006,38.44 70.6526,38.44 C73.0686,38.44 74.8906,38.054 76.0726,37.616 L76.0726,33.682 Z M101.3786,35.97 L101.3786,37.34 C101.3786,41.094 99.0686,42.55 96.1986,42.55 C93.6206,42.55 91.7186,41.78 91.1166,41.564 L91.1166,45.278 C91.6066,45.412 93.7006,46.068 96.6886,46.068 C101.9946,46.068 105.5406,43.878 105.5406,36.374 L105.5406,20.18 C104.8586,20.004 102.3686,19.348 99.5026,19.348 C92.0586,19.348 88.8606,24.334 88.8606,29.73 C88.8606,34.694 91.3546,38.582 96.1366,38.582 C99.2906,38.582 100.8046,36.676 101.2986,35.97 L101.3786,35.97 Z M101.1506,29.06 C101.1506,33.274 99.5026,35.03 97.1166,35.03 C94.7166,35.03 93.3686,32.992 93.3686,29.416 C93.3686,25.768 95.4606,22.748 99.3246,22.748 C100.1206,22.748 100.6786,22.826 101.1506,22.938 L101.1506,29.06 Z M79.9386,15.018 C79.9386,16.492 81.1546,17.686 82.6586,17.686 C84.1586,17.686 85.3746,16.492 85.3746,15.018 C85.3746,13.546 84.1586,12.352 82.6586,12.352 C81.1546,12.352 79.9386,13.546 79.9386,15.018 Z" id="Fill-8" fill="#0081C5"></path>
                        <g id="Group-12" transform="translate(150.000000, 33.158200)">
                            <mask id="mask-4" fill="white">
                                <use xlink:href="#path-3"></use>
                            </mask>
                            <g id="Clip-11"></g>
                            <path d="M5.5664,4.3028 C5.0904,4.7828 4.5144,5.0208 3.8364,5.0208 C3.1604,5.0208 2.5844,4.7828 2.1104,4.3028 C1.6364,3.8268 1.4004,3.2508 1.4004,2.5708 C1.4004,1.8988 1.6404,1.3248 2.1164,0.8468 C2.5924,0.3728 3.1644,0.1348 3.8364,0.1348 C4.5144,0.1348 5.0904,0.3728 5.5664,0.8468 C6.0424,1.3228 6.2824,1.8968 6.2824,2.5708 C6.2824,3.2468 6.0424,3.8248 5.5664,4.3028 Z M2.3524,1.0868 C1.9444,1.4968 1.7404,1.9928 1.7404,2.5748 C1.7404,3.1608 1.9444,3.6588 2.3484,4.0708 C2.7584,4.4828 3.2524,4.6888 3.8364,4.6888 C4.4184,4.6888 4.9144,4.4828 5.3244,4.0708 C5.7324,3.6588 5.9364,3.1608 5.9364,2.5748 C5.9364,1.9928 5.7324,1.4968 5.3244,1.0868 C4.9124,0.6748 4.4184,0.4668 3.8364,0.4668 C3.2564,0.4668 2.7624,0.6748 2.3524,1.0868 Z M3.7884,1.2228 C4.1224,1.2228 4.3664,1.2568 4.5224,1.3188 C4.8004,1.4348 4.9384,1.6628 4.9384,1.9988 C4.9384,2.2388 4.8504,2.4168 4.6764,2.5268 L4.2884,2.6588 C4.4964,2.6908 4.6524,2.7788 4.7484,2.9208 L4.8944,3.3388 L4.8944,3.5308 L4.9004,3.7308 L4.9244,3.8708 L4.9404,3.9048 L4.4984,3.9048 L4.4924,3.8788 L4.4844,3.8468 L4.4764,3.7608 L4.4764,3.5508 C4.4764,3.2408 4.3904,3.0368 4.2244,2.9368 C4.1224,2.8788 3.9484,2.8488 3.6964,2.8488 L3.3224,2.8488 L3.3224,3.9048 L2.8524,3.9048 L2.8524,1.2228 L3.7884,1.2228 Z M4.3004,1.6448 C4.1804,1.5788 3.9904,1.5448 3.7284,1.5448 L3.3224,1.5448 L3.3224,2.5168 L3.7504,2.5168 C3.9524,2.5168 4.1024,2.4988 4.2024,2.4568 C4.3864,2.3848 4.4784,2.2448 4.4784,2.0368 C4.4784,1.8448 4.4184,1.7128 4.3004,1.6448 Z" id="Fill-10" fill="#0081C5" mask="url(#mask-4)"></path>
                        </g>
                    </g>
                </g>
            </g>
        </g>
    </g>
</svg>

<svg height="52" viewBox="0 0 157 52" width="157" xmlns="http://www.w3.org/2000/svg" xmlns:xlink="http://www.w3.org/1999/xlink"><mask id="a" fill="#fff"><path d="m.1962.4206h22.208v29.5794h-22.208z" fill="#fff" fill-rule="evenodd"/></mask><mask id="b" fill="#fff"><path d="m1.4004.1348h4.8816v4.886h-4.8816z" fill="#fff" fill-rule="evenodd"/></mask><g fill="none" fill-rule="evenodd"><path d="m22.4042.7266c0 .394-.412.832-.958 1.506-1.846 2.274-5.968 6.312-5.968 16.324 0 5.186.854 7.338.854 9.766 0 1.104-.22 1.678-.792 1.678-1.304 0-3.512-5.47-3.512-12.028 0-13.73 8.66-17.552 9.996-17.552.266 0 .38.146.38.306m-21.83-.306c1.338 0 9.996 3.822 9.996 17.552 0 6.558-2.206 12.028-3.51 12.028-.572 0-.794-.574-.794-1.678 0-2.428.854-4.58.854-9.766 0-10.012-4.12-14.05-5.966-16.324-.546-.674-.958-1.112-.958-1.506 0-.16.114-.306.378-.306" fill="#0081c5" mask="url(#a)" transform="translate(16 21.1582)"/><path d="m24.1358 24.3262c0 1.792 1.416 3.244 3.164 3.244 1.746 0 3.164-1.452 3.164-3.244 0-1.794-1.418-3.246-3.164-3.246-1.748 0-3.164 1.452-3.164 3.246" fill="#f7971d"/><path d="m27.3008 9.3028c-1.288-.598-2.552-1.708-2.552-4.02 0-2.206 1.042-4.33 2.552-5.282 1.51.952 2.552 3.076 2.552 5.282 0 2.312-1.266 3.422-2.552 4.02m27.036 35.41c-4.498-2.766-11.342-5.64-21.266-6.552-.018.12-.104.854-.104 1.554 0 .332.06.764.07.85 9.68.628 16.578 2.686 21.252 4.36l.23.074.078-.072c0-.076-.078-.102-.26-.214m-21.9-37.008c-.76-.686-1.396-1.718-.904-3.312.47-1.518 1.638-2.76 2.882-3.096.838.978 1.102 2.66.634 4.182-.494 1.594-1.6 2.09-2.612 2.226m7.304 6.078c-.262-.944-.242-2.11.98-3.146 1.166-.988 2.752-1.388 3.932-1.016.174 1.224-.482 2.722-1.648 3.712-1.222 1.034-2.374.864-3.264.45m.232 9.172c.308-.91.966-1.844 2.526-2.016 1.488-.16 2.996.39 3.748 1.338-.53 1.088-1.888 1.944-3.376 2.106-1.562.168-2.404-.602-2.898-1.428m-2.644 3.32c.502-.692 1.306-1.314 2.676-1.048 1.308.252 2.446 1.116 2.838 2.12-.738.786-2.116 1.158-3.426.906-1.37-.268-1.884-1.144-2.088-1.978m-7.95-8.674c-.914-.82-1.676-2.06-1.084-3.972.564-1.822 1.964-3.312 3.458-3.714 1.004 1.174 1.322 3.192.758 5.018-.59 1.912-1.918 2.504-3.132 2.668m3.472 2.022c-.294-1.064-.272-2.374 1.104-3.54 1.31-1.11 3.094-1.56 4.42-1.142.196 1.378-.542 3.064-1.852 4.174-1.376 1.164-2.672.972-3.672.508m2.316-7.414c-.666-1.058-1.068-2.49.044-4.2 1.058-1.636 2.85-2.704 4.424-2.684.66 1.432.412 3.502-.65 5.134-1.11 1.714-2.58 1.926-3.818 1.75m4.684 6.44c.014-1.166.414-2.49 2.148-3.272 1.652-.748 3.594-.686 4.818.122-.202 1.452-1.438 2.95-3.092 3.698-1.73.782-2.992.214-3.874-.548m-39.85 26.278.08.072.23-.074c4.672-1.674 11.572-3.732 21.252-4.36.01-.086.07-.518.07-.85 0-.7-.086-1.434-.104-1.554-9.924.912-16.768 3.786-21.268 6.552-.18.112-.26.138-.26.214m19.55-39.448c-.47-1.522-.204-3.204.634-4.182 1.242.336 2.41 1.578 2.88 3.096.492 1.594-.142 2.626-.9 3.312-1.014-.136-2.122-.632-2.614-2.226m-7.958 7.854c-1.166-.99-1.82-2.488-1.648-3.712 1.182-.372 2.768.028 3.934 1.016 1.22 1.036 1.242 2.202.98 3.146-.892.414-2.044.584-3.266-.45m.136 11.05c-1.488-.162-2.844-1.018-3.378-2.106.752-.948 2.262-1.498 3.75-1.338 1.56.172 2.22 1.106 2.526 2.016-.496.826-1.338 1.596-2.898 1.428m3.452 3.87c-1.308.252-2.686-.12-3.426-.906.392-1.004 1.53-1.868 2.838-2.12 1.372-.266 2.176.356 2.678 1.048-.204.834-.72 1.71-2.09 1.978m6.908-13.32c-.566-1.826-.246-3.844.758-5.018 1.492.402 2.894 1.892 3.458 3.714.59 1.912-.17 3.152-1.082 3.972-1.214-.164-2.544-.756-3.134-2.668m-4.01 4.182c-1.312-1.11-2.048-2.796-1.854-4.174 1.326-.418 3.11.032 4.422 1.142 1.374 1.166 1.396 2.476 1.104 3.54-1.002.464-2.3.656-3.672-.508m-2.464-8.656c-1.062-1.632-1.312-3.702-.65-5.134 1.572-.02 3.364 1.048 4.426 2.684 1.11 1.71.708 3.142.044 4.2-1.24.176-2.712-.036-3.82-1.75m-4.74 8.738c-1.654-.748-2.89-2.246-3.092-3.698 1.226-.808 3.166-.87 4.818-.122 1.732.782 2.134 2.106 2.146 3.272-.882.762-2.14 1.33-3.872.548" fill="#54b847"/><g fill="#0081c5"><path d="m110.5126 38.168v-12.7c0-1.7-.158-4.966-.2-5.706h3.942l.188 2.58h.08c.458-.722 1.94-2.994 5.38-2.994 4.156 0 6.466 3.05 6.466 6.858v11.962h-4.388v-11.092c0-2.338-1.302-4.106-3.538-4.106-2.31 0-3.538 1.864-3.538 4.106v11.092zm-30.05 0h4.392v-18.352h-4.392zm67.002 0c-.14-1.028-.552-3.732-.552-6.06v-11.928c-.686-.176-3.18-.832-6.042-.832-7.444 0-10.644 4.986-10.644 10.382 0 4.964 2.492 8.852 7.278 8.852 3.494 0 5.058-2.262 5.652-3.464h.112c.046.568.204 2.514.254 3.05zm-4.944-9.108c0 4.214-1.65 5.97-4.03 5.97-2.404 0-3.756-2.038-3.756-5.614 0-3.648 2.096-6.668 5.962-6.668.788 0 1.348.078 1.824.19zm-66.448 4.622c-1.194.556-3.104.928-4.958.928-5.046 0-8.76-3.61-8.76-9.11 0-5.462 3.69-9.114 8.76-9.114 2.516 0 4.304.612 4.958.924v-3.932c-1.102-.41-2.894-.822-5.42-.822-7.834 0-13.094 5.412-13.094 12.944 0 7.118 4.842 12.94 13.094 12.94 2.416 0 4.238-.386 5.42-.824zm25.306 2.288v1.37c0 3.754-2.31 5.21-5.18 5.21-2.578 0-4.48-.77-5.082-.986v3.714c.49.134 2.584.79 5.572.79 5.306 0 8.852-2.19 8.852-9.694v-16.194c-.682-.176-3.172-.832-6.038-.832-7.444 0-10.642 4.986-10.642 10.382 0 4.964 2.494 8.852 7.276 8.852 3.154 0 4.668-1.906 5.162-2.612zm-.228-6.91c0 4.214-1.648 5.97-4.034 5.97-2.4 0-3.748-2.038-3.748-5.614 0-3.648 2.092-6.668 5.956-6.668.796 0 1.354.078 1.826.19zm-21.212-14.042c0 1.474 1.216 2.668 2.72 2.668 1.5 0 2.716-1.194 2.716-2.668 0-1.472-1.216-2.666-2.716-2.666-1.504 0-2.72 1.194-2.72 2.666z"/><path d="m5.5664 4.3028c-.476.48-1.052.718-1.73.718-.676 0-1.252-.238-1.726-.718-.474-.476-.71-1.052-.71-1.732 0-.672.24-1.246.716-1.724.476-.474 1.048-.712 1.72-.712.678 0 1.254.238 1.73.712.476.476.716 1.05.716 1.724 0 .676-.24 1.254-.716 1.732zm-3.214-3.216c-.408.41-.612.906-.612 1.488 0 .586.204 1.084.608 1.496.41.412.904.618 1.488.618.582 0 1.078-.206 1.488-.618.408-.412.612-.91.612-1.496 0-.582-.204-1.078-.612-1.488-.412-.412-.906-.62-1.488-.62-.58 0-1.074.208-1.484.62zm1.436.136c.334 0 .578.034.734.096.278.116.416.344.416.68 0 .24-.088.418-.262.528l-.388.132c.208.032.364.12.46.262l.146.418v.192l.006.2.024.14.016.034h-.442l-.006-.026-.008-.032-.008-.086v-.21c0-.31-.086-.514-.252-.614-.102-.058-.276-.088-.528-.088h-.374v1.056h-.47v-2.682zm.512.422c-.12-.066-.31-.1-.572-.1h-.406v.972h.428c.202 0 .352-.018.452-.06.184-.072.276-.212.276-.42 0-.192-.06-.324-.178-.392z" mask="url(#b)" transform="translate(150 33.1582)"/></g></g></svg>
